svg/UnitedNationsOCHA-Humanitarian/other_clusters_coordination_icon.svg

<svg xmlns="http://www.w3.org/2000/svg" viewBox="0 0 32 32" enable-background="new 0 0 32 32"><path fill="#407cca" d="m8.249 21.05l-2.02-2.02h6.737v6.734l-2.02-2.02-4.247 4.248-2.705-2.703 4.249-4.247m17.05 6.95l2.701-2.703-4.247-4.247 2.02-2.02h-6.732l-.002 6.734 2.02-2.02 4.248 4.248m2.701-21.297l-2.701-2.703-4.249 4.25-2.02-2.02v6.731l6.736.003-2.02-2.02 4.249-4.246m-21.767 6.266h6.733l.004-6.737-2.02 2.02-4.248-4.25-2.705 2.706 4.249 4.244-2.02 2.02m9.767.1c-1.619 0-2.931 1.313-2.931 2.931 0 1.622 1.313 2.935 2.931 2.935 1.619 0 2.933-1.313 2.933-2.935 0-1.619-1.314-2.931-2.933-2.931"/></svg>

<?xml version="1.0" encoding="utf-8"?>
<!-- Generator: Adobe Illustrator 16.0.3, SVG Export Plug-In . SVG Version: 6.00 Build 0)  -->
<!DOCTYPE svg PUBLIC "-//W3C//DTD SVG 1.1//EN" "http://www.w3.org/Graphics/SVG/1.1/DTD/svg11.dtd">
<svg version="1.1" id="Layer_1" xmlns="http://www.w3.org/2000/svg" xmlns:xlink="http://www.w3.org/1999/xlink" x="0px" y="0px"
	 width="32px" height="32px" viewBox="0 0 32 32" enable-background="new 0 0 32 32" xml:space="preserve">
<path fill="#407CCA" d="M8.249,21.05l-2.017-2.016h6.737v6.734l-2.017-2.016L6.705,28L4,25.297L8.249,21.05z M25.299,28L28,25.297
	l-4.247-4.247l2.016-2.016h-6.732l-0.002,6.734l2.016-2.016L25.299,28z M28,6.703L25.299,4L21.05,8.25l-2.016-2.016v6.731
	l6.736,0.003l-2.019-2.019L28,6.703z M6.233,12.969h6.733l0.004-6.737L10.953,8.25L6.705,4L4,6.706l4.249,4.244L6.233,12.969z
	 M16,13.069c-1.619,0-2.931,1.313-2.931,2.931c0,1.622,1.313,2.935,2.931,2.935c1.619,0,2.933-1.313,2.933-2.935
	C18.933,14.381,17.619,13.069,16,13.069z"/>
</svg>
